src/icons/first-aid-kit.svg

<svg width="48" height="37" viewBox="0 0 48 37" fill="none" xmlns="http://www.w3.org/2000/svg">
<path d="M5.33333 0C2.39167 0 0 2.37031 0 5.28571V31.7143C0 34.6297 2.39167 37 5.33333 37H8V0H5.33333ZM10.6667 0V37H37.3333V0H10.6667ZM42.6667 37C45.6083 37 48 34.6297 48 31.7143V5.28571C48 2.37031 45.6083 0 42.6667 0H40V37H42.6667ZM21.3333 11.8929C21.3333 11.1661 21.9333 10.5714 22.6667 10.5714H25.3333C26.0667 10.5714 26.6667 11.1661 26.6667 11.8929V15.8571H30.6667C31.4 15.8571 32 16.4518 32 17.1786V19.8214C32 20.5482 31.4 21.1429 30.6667 21.1429H26.6667V25.1071C26.6667 25.8339 26.0667 26.4286 25.3333 26.4286H22.6667C21.9333 26.4286 21.3333 25.8339 21.3333 25.1071V21.1429H17.3333C16.6 21.1429 16 20.5482 16 19.8214V17.1786C16 16.4518 16.6 15.8571 17.3333 15.8571H21.3333V11.8929Z" fill="#FFB801"/>
</svg>

<svg xmlns="http://www.w3.org/2000/svg" width="48" height="37" fill="none">
  <path fill="#FFB801" d="M5.333 0C2.392 0 0 2.37 0 5.286v26.428C0 34.63 2.392 37 5.333 37H8V0H5.333Zm5.334 0v37h26.666V0H10.667Zm32 37C45.608 37 48 34.63 48 31.714V5.286C48 2.37 45.608 0 42.667 0H40v37h2.667ZM21.333 11.893c0-.727.6-1.322 1.334-1.322h2.666c.734 0 1.334.595 1.334 1.322v3.964h4c.733 0 1.333.595 1.333 1.322v2.642c0 .727-.6 1.322-1.333 1.322h-4v3.964c0 .727-.6 1.322-1.334 1.322h-2.666a1.331 1.331 0 0 1-1.334-1.322v-3.964h-4A1.331 1.331 0 0 1 16 19.82V17.18c0-.727.6-1.322 1.333-1.322h4v-3.964Z"/>
</svg>
